src/icons/actionscript.svg

<svg width="16" height="16" viewBox="0 0 16 16" fill="none" xmlns="http://www.w3.org/2000/svg">
<path fill-rule="evenodd" clip-rule="evenodd" d="M10.1751 5.245C9.94774 5.245 9.73207 5.274 9.52807 5.332C9.33246 5.38279 9.14912 5.47258 8.98907 5.596C8.83574 5.716 8.71407 5.87 8.62407 6.058C8.53407 6.24333 8.48907 6.466 8.48907 6.726C8.48907 7.05666 8.57107 7.339 8.73507 7.573C8.90107 7.807 9.15141 8.005 9.48607 8.167C9.61807 8.22966 9.74074 8.29133 9.85407 8.352C9.96807 8.412 10.0657 8.47433 10.1471 8.53899C10.2311 8.60366 10.2971 8.67433 10.3451 8.751C10.3924 8.82943 10.4174 8.91937 10.4171 9.01099C10.4171 9.08366 10.4021 9.15133 10.3721 9.21399C10.3393 9.27716 10.292 9.33165 10.2341 9.373C10.1653 9.42134 10.0884 9.45691 10.0071 9.47799C9.90325 9.50481 9.7963 9.51759 9.68907 9.516C9.48241 9.516 9.27707 9.47433 9.07307 9.391C8.86212 9.30083 8.67034 9.17117 8.50807 9.009V10.12C8.66341 10.2133 8.84674 10.2833 9.05807 10.33C9.27141 10.3753 9.49574 10.398 9.73107 10.398C9.96107 10.398 10.1787 10.3727 10.3841 10.322C10.5907 10.272 10.7724 10.1887 10.9291 10.072C11.0844 9.95399 11.2071 9.801 11.2971 9.613C11.3884 9.423 11.4341 9.189 11.4341 8.911C11.4341 8.70966 11.4081 8.53366 11.3561 8.383C11.3063 8.23533 11.2305 8.09781 11.1321 7.977C11.0298 7.85535 10.911 7.74864 10.7791 7.66C10.6329 7.55912 10.4791 7.46985 10.3191 7.393C10.2043 7.3386 10.0912 7.28057 9.98007 7.219C9.89072 7.16765 9.80546 7.10948 9.72507 7.045C9.66234 6.99098 9.60836 6.92756 9.56507 6.857C9.52881 6.7914 9.50912 6.71793 9.50773 6.64299C9.50633 6.56805 9.52327 6.4939 9.55707 6.427C9.59318 6.36374 9.64266 6.30913 9.70207 6.267C9.77142 6.21995 9.84864 6.18574 9.93007 6.166C10.0201 6.14066 10.1194 6.12766 10.2281 6.127C10.3081 6.127 10.3917 6.13399 10.4791 6.14799C10.5691 6.16199 10.6591 6.184 10.7491 6.214C10.9296 6.26864 11.0982 6.35685 11.2461 6.474V5.437C11.093 5.36948 10.9321 5.32144 10.7671 5.294C10.5717 5.25968 10.3735 5.24261 10.1751 5.245ZM5.78807 5.329L4.22607 10.313H5.27307L5.57607 9.204H7.10207L7.40707 10.313H8.46107L6.93407 5.328L5.78807 5.329ZM6.34807 6.219H6.32407C6.31407 6.365 6.28907 6.50966 6.24907 6.653L5.78207 8.342H6.88107L6.42007 6.666C6.38254 6.51915 6.35844 6.3702 6.34807 6.219Z" fill="#F07178"/>
<path fill-rule="evenodd" clip-rule="evenodd" d="M4.3721 3.01599C3.79344 3.01599 3.3751 3.17099 3.1171 3.48099C2.85977 3.78766 2.7311 4.32033 2.7311 5.07899V6.31299C2.7311 7.01633 2.5311 7.36799 2.1311 7.36799V8.38599C2.5311 8.38599 2.7311 8.72499 2.7311 9.40299V10.731C2.7311 11.4857 2.8611 12.011 3.1211 12.307C3.3811 12.6017 3.7981 12.749 4.3721 12.749V11.715C4.14877 11.715 3.9871 11.6393 3.8871 11.488C3.7891 11.3373 3.74044 11.0813 3.7411 10.72V9.58599C3.7411 8.68266 3.53877 8.11699 3.1341 7.88899V7.86599C3.53877 7.63399 3.7411 7.07533 3.7411 6.18999V5.01299C3.7411 4.37099 3.95144 4.04999 4.3721 4.04999V3.01599ZM11.7021 3.01599V4.04999C12.1221 4.04999 12.3321 4.37099 12.3321 5.01299V6.14699C12.3321 7.06833 12.5334 7.64499 12.9361 7.87699V7.89899C12.5341 8.12099 12.3331 8.67233 12.3331 9.55299V10.73C12.3331 11.088 12.2831 11.3407 12.1831 11.488C12.0831 11.64 11.9228 11.7157 11.7021 11.715V12.749C12.2781 12.749 12.6938 12.6017 12.9491 12.307C13.2071 12.0117 13.3358 11.475 13.3351 10.697V9.41999C13.3351 8.73066 13.5364 8.38599 13.9391 8.38599V7.36799C13.5364 7.36799 13.3351 7.01966 13.3351 6.32299V5.05699C13.3351 4.31233 13.2064 3.78666 12.9491 3.47999C12.6911 3.16999 12.2754 3.01533 11.7021 3.01599Z" fill="#82AAFF"/>
</svg>

<svg xmlns="http://www.w3.org/2000/svg" width="16" height="16" fill="none"><g fill-rule="evenodd" clip-rule="evenodd"><path fill="#F07178" d="M10.175 5.245q-.341 0-.647.087a1.5 1.5 0 0 0-.539.264q-.23.18-.365.462-.135.278-.135.668 0 .496.246.847.249.351.751.594.198.094.368.185.171.09.293.187.126.097.198.212a.5.5 0 0 1 .072.26q0 .109-.045.203a.45.45 0 0 1-.138.159.7.7 0 0 1-.227.105 1.2 1.2 0 0 1-.318.038q-.31 0-.616-.125a1.8 1.8 0 0 1-.565-.382v1.111q.233.14.55.21.32.068.673.068.345 0 .653-.076.31-.075.545-.25.233-.177.368-.459.137-.285.137-.702 0-.302-.078-.528a1.3 1.3 0 0 0-.224-.406 1.7 1.7 0 0 0-.353-.317 3.4 3.4 0 0 0-.46-.267 6 6 0 0 1-.339-.174 2 2 0 0 1-.255-.174.8.8 0 0 1-.16-.188.46.46 0 0 1-.008-.43.5.5 0 0 1 .145-.16.7.7 0 0 1 .228-.101q.135-.038.298-.039.12 0 .251.021.135.021.27.066a1.5 1.5 0 0 1 .497.26V5.437a2 2 0 0 0-.479-.143 3.2 3.2 0 0 0-.592-.048m-4.387.083-1.562 4.984h1.047l.303-1.109h1.526l.305 1.109h1.054L6.934 5.328zm.56.89h-.024q-.015.219-.075.434l-.467 1.689h1.099L6.42 6.666a2.5 2.5 0 0 1-.072-.448"/><path fill="#82AAFF" d="M4.372 3.016q-.868 0-1.255.465-.386.46-.386 1.598v1.234q0 1.055-.6 1.055v1.018q.6 0 .6 1.017v1.328q0 1.132.39 1.576.39.442 1.251.442v-1.034q-.335 0-.485-.227-.147-.226-.146-.768V9.586q0-1.355-.607-1.697v-.023q.607-.348.607-1.676V5.013q0-.963.631-.963zM11.702 3.016V4.05q.63 0 .63.963v1.134q0 1.382.604 1.73v.022q-.603.333-.603 1.654v1.177q0 .537-.15.758-.15.228-.481.227v1.034q.864 0 1.247-.442.387-.443.386-1.61V9.42q0-1.034.604-1.034V7.368q-.604 0-.604-1.045V5.057q0-1.117-.386-1.577-.387-.465-1.247-.464"/></g></svg>
